svgs/light/film.svg

<svg xmlns="http://www.w3.org/2000/svg" viewBox="0 0 512 512"><!-- Font Awesome Pro 6.0.0-alpha2 by @fontawesome - https://fontawesome.com License - https://fontawesome.com/license (Commercial License) --><path d="M448 32H64C28.654 32 0 60.654 0 96V416C0 451.346 28.654 480 64 480H448C483.346 480 512 451.346 512 416V96C512 60.654 483.346 32 448 32ZM384 64V240H128V64H384ZM32 96C32 78.355 46.355 64 64 64H96V144H32V96ZM32 176H96V240H32V176ZM32 272H96V336H32V272ZM64 448C46.355 448 32 433.645 32 416V368H96V448H64ZM128 448V272H384V448H128ZM480 416C480 433.645 465.645 448 448 448H416V368H480V416ZM480 336H416V272H480V336ZM480 240H416V176H480V240ZM480 144H416V64H448C465.645 64 480 78.355 480 96V144Z"/></svg>

<svg xmlns="http://www.w3.org/2000/svg" viewBox="0 0 512 512"><!--! Font Awesome Pro 6.3.0 by @fontawesome - https://fontawesome.com License - https://fontawesome.com/license (Commercial License) Copyright 2023 Fonticons, Inc. --><path d="M448 32H64C28.65 32 0 60.65 0 96v320c0 35.35 28.65 64 64 64h384c35.35 0 64-28.65 64-64V96C512 60.65 483.3 32 448 32zM384 64v176H128V64H384zM32 96c0-17.64 14.36-32 32-32h32v80H32V96zM32 176h64v64H32V176zM32 272h64v64H32V272zM64 448c-17.64 0-32-14.36-32-32v-48h64V448H64zM128 448V272h256V448H128zM480 416c0 17.64-14.36 32-32 32h-32v-80h64V416zM480 336h-64v-64h64V336zM480 240h-64v-64h64V240zM480 144h-64V64h32c17.64 0 32 14.36 32 32V144z"/></svg>
